libs/islamic-website/markets-page/src/assets/images/coin-logos/usdt.svg

<svg fill="none" height="40" viewBox="0 0 40 40" width="40" xmlns="http://www.w3.org/2000/svg"><rect fill="#50af95" height="38" rx="19" width="38" x="1" y="1"/><rect height="38" rx="19" stroke="#181e25" stroke-width="2" width="38" x="1" y="1"/><path clip-rule="evenodd" d="m22.2754 22.0408c-.1272.0095-.7848.0488-2.2517.0488-1.1667 0-1.9951-.035-2.2857-.0488-4.5087-.1984-7.87413-.9832-7.87413-1.923 0-.9397 3.36543-1.7235 7.87413-1.925v3.0663c.2949.0212 1.1392.071 2.3059.071 1.4 0 2.1011-.0583 2.2273-.07v-3.0652c4.4992.2005 7.8572.9853 7.8572 1.9229s-3.3569 1.7225-7.8572 1.9219zm0-4.163v-2.7439h6.279v-4.1842h-17.0953v4.1842h6.2779v2.7428c-5.1027.2344-8.94012 1.2452-8.94012 2.4565 0 1.2112 3.83742 2.2209 8.94012 2.4564v8.7927h4.5374v-8.7959c5.091-.2344 8.922-1.2441 8.922-2.4543s-3.8278-2.2199-8.922-2.4554z" fill="#fff" fill-rule="evenodd"/></svg>

<svg width="40" height="40" viewBox="0 0 40 40" fill="none" xmlns="http://www.w3.org/2000/svg">
<rect x="1" y="1" width="38" height="38" rx="19" fill="#50AF95"/>
<rect x="1" y="1" width="38" height="38" rx="19" stroke="#181E25" stroke-width="2"/>
<path fill-rule="evenodd" clip-rule="evenodd" d="M22.2754 22.0408C22.1482 22.0503 21.4906 22.0896 20.0237 22.0896C18.857 22.0896 18.0286 22.0546 17.738 22.0408C13.2293 21.8424 9.86387 21.0576 9.86387 20.1178C9.86387 19.1781 13.2293 18.3943 17.738 18.1928V21.2591C18.0329 21.2803 18.8772 21.3301 20.0439 21.3301C21.4439 21.3301 22.145 21.2718 22.2712 21.2601V18.1949C26.7704 18.3954 30.1284 19.1802 30.1284 20.1178C30.1284 21.0554 26.7715 21.8403 22.2712 22.0397L22.2754 22.0408ZM22.2754 17.8778V15.1339H28.5544V10.9497H11.4591V15.1339H17.737V17.8767C12.6343 18.1111 8.79688 19.1219 8.79688 20.3332C8.79688 21.5444 12.6343 22.5541 17.737 22.7896V31.5823H22.2744V22.7864C27.3654 22.552 31.1964 21.5423 31.1964 20.3321C31.1964 19.1219 27.3686 18.1122 22.2744 17.8767L22.2754 17.8778Z" fill="white"/>
</svg>
